X: 15535
T: Glenties, The
R: mazurka
M: 3/4
K: Gmajor
|:D>G B2 B2|G>E D2 D2|B,>D E2 E2|C>E D2 D2|
D>G B2 B2|G>E D2 D2|B,>D E2 F2|D2G4:|
|:G>A B2 B>c|d>B c2 c2|D>F A2 A>B|c>A B2 B2|
G>A B2 B>c|d>B c2 c2|D>F A2 A>C|B>A G4:|

